assets/img/braze_icons/building-05.svg

<svg fill="none" height="24" viewBox="0 0 24 24" width="24" xmlns="http://www.w3.org/2000/svg"><path clip-rule="evenodd" d="m9.83855 2h-3.67709c-.52712-.00002-.98193-.00003-1.35649.03057-.39534.0323-.78856.10362-1.16694.29641-.56449.28762-1.02343.74657-1.31105 1.31105-.19279.37838-.26411.7716-.29641 1.16695-.0306.37457-.03059.82933-.03057 1.35648v13.83854c-.55228 0-1 .4477-1 1s.44772 1 1 1h20c.5523 0 1-.4477 1-1s-.4477-1-1-1v-5.8385c0-.5272 0-.9819-.0306-1.3565-.0323-.3954-.1036-.7886-.2964-1.167-.2876-.5645-.7465-1.0234-1.311-1.311-.3784-.1928-.7716-.2641-1.167-.2964-.3745-.03063-.8293-.03062-1.3565-.0306h-3.8385v-3.83855c0-.52714 0-.9819-.0306-1.35647-.0323-.39535-.1036-.78857-.2964-1.16695-.2876-.56448-.7465-1.02343-1.311-1.31105-.3784-.19279-.7716-.26411-1.167-.29641-.3745-.0306-.8293-.03059-1.35645-.03057zm-4.83855 5c0-.55228.44772-1 1-1h4c.5523 0 1 .44772 1 1 0 .55229-.4477 1-1 1h-4c-.55228 0-1-.44771-1-1zm0 4c0-.5523.44772-1 1-1h4c.5523 0 1 .4477 1 1s-.4477 1-1 1h-4c-.55228 0-1-.4477-1-1zm1 3c-.55228 0-1 .4477-1 1s.44772 1 1 1h4c.5523 0 1-.4477 1-1s-.4477-1-1-1z" fill="#801ed7" fill-rule="evenodd"/></svg>

<svg width="24" height="24" viewBox="0 0 24 24" fill="none" xmlns="http://www.w3.org/2000/svg">
<path fill-rule="evenodd" clip-rule="evenodd" d="M9.83855 2H6.16146C5.63434 1.99998 5.17953 1.99997 4.80497 2.03057C4.40963 2.06287 4.01641 2.13419 3.63803 2.32698C3.07354 2.6146 2.6146 3.07355 2.32698 3.63803C2.13419 4.01641 2.06287 4.40963 2.03057 4.80498C1.99997 5.17955 1.99998 5.63431 2 6.16146L2 20C1.44772 20 1 20.4477 1 21C1 21.5523 1.44772 22 2 22H22C22.5523 22 23 21.5523 23 21C23 20.4477 22.5523 20 22 20V14.1615C22 13.6343 22 13.1796 21.9694 12.805C21.9371 12.4096 21.8658 12.0164 21.673 11.638C21.3854 11.0735 20.9265 10.6146 20.362 10.327C19.9836 10.1342 19.5904 10.0629 19.195 10.0306C18.8205 9.99997 18.3657 9.99998 17.8385 10L14 10V6.16145C14 5.63431 14 5.17955 13.9694 4.80498C13.9371 4.40963 13.8658 4.01641 13.673 3.63803C13.3854 3.07355 12.9265 2.6146 12.362 2.32698C11.9836 2.13419 11.5904 2.06287 11.195 2.03057C10.8205 1.99997 10.3657 1.99998 9.83855 2ZM5 7C5 6.44772 5.44772 6 6 6H10C10.5523 6 11 6.44772 11 7C11 7.55229 10.5523 8 10 8H6C5.44772 8 5 7.55229 5 7ZM5 11C5 10.4477 5.44772 10 6 10H10C10.5523 10 11 10.4477 11 11C11 11.5523 10.5523 12 10 12H6C5.44772 12 5 11.5523 5 11ZM6 14C5.44772 14 5 14.4477 5 15C5 15.5523 5.44772 16 6 16H10C10.5523 16 11 15.5523 11 15C11 14.4477 10.5523 14 10 14H6Z" fill="#801ED7"/>
</svg>
